apps/app.mento.org/public/tokens/cCAD.svg

<svg width="40" height="40" viewBox="0 0 40 40" fill="none" xmlns="http://www.w3.org/2000/svg">
<g clip-path="url(#clip0_4059_20186)">
<path d="M20 40C31.0457 40 40 31.0457 40 20C40 8.95431 31.0457 0 20 0C8.95431 0 0 8.95431 0 20C0 31.0457 8.95431 40 20 40Z" fill="#4EEAFF"/>
<path d="M15.8614 29.8028C11.4022 29.8028 7.75738 26.1588 7.75738 21.6988C7.75738 18.534 9.57978 15.7524 12.2646 14.458V11.5332C8.09258 13.0196 5.07178 16.9996 5.07178 21.6988C5.07178 27.6452 9.91498 32.4884 15.8614 32.4884C20.5606 32.4884 24.5406 29.4676 26.027 25.2956H23.1022C21.8078 27.9812 19.0262 29.8028 15.8614 29.8028Z" fill="#070010"/>
<path d="M30.9659 18.9699V15.6876C32.0865 15.9681 32.9673 16.328 32.9673 17.289C32.9673 18.1699 32.2067 18.8103 30.9659 18.9699ZM29.4453 22.0118H31.0467V20.771C33.4081 20.4905 34.9294 19.1295 34.9294 17.2883C34.9294 14.7266 32.8879 14.1663 30.9666 13.8057V10.4032C31.8875 10.4833 32.8879 10.7631 33.8088 11.2039V9.20244C32.9279 8.88188 31.9676 8.68221 31.0467 8.64214V7.44141H29.4453V8.64214C27.0037 8.92262 25.6027 10.2836 25.6027 12.0046C25.6027 14.6064 27.6041 15.2068 29.5254 15.5674V18.9699C28.3647 18.8096 27.1239 18.3295 25.6828 17.5688V19.6905C26.9236 20.2908 28.2045 20.6915 29.4453 20.771V22.0118ZM29.5254 13.6461C28.4048 13.4057 27.564 13.0056 27.564 12.0046C27.564 11.0837 28.2846 10.5234 29.5254 10.4032V13.6454V13.6461Z" fill="#070010"/>
<path d="M24.5343 12.7056H22.7736C22.7058 12.3294 22.5798 11.9983 22.3954 11.7124C22.2111 11.4264 21.9854 11.1838 21.7182 10.9844C21.4511 10.785 21.152 10.6345 20.8209 10.5329C20.4936 10.4313 20.1456 10.3805 19.7769 10.3805C19.111 10.3805 18.5147 10.5479 17.9879 10.8828C17.465 11.2176 17.0511 11.7086 16.7464 12.3557C16.4454 13.0028 16.2949 13.7929 16.2949 14.7259C16.2949 15.6665 16.4454 16.4604 16.7464 17.1075C17.0511 17.7546 17.4669 18.2437 17.9936 18.5748C18.5203 18.9058 19.1129 19.0714 19.7713 19.0714C20.1362 19.0714 20.4823 19.0225 20.8096 18.9246C21.1407 18.8231 21.4398 18.6745 21.707 18.4788C21.9741 18.2832 22.1998 18.0443 22.3842 17.7621C22.5723 17.4762 22.7021 17.1489 22.7736 16.7801L24.5343 16.7858C24.4402 17.3539 24.2578 17.8769 23.9869 18.3547C23.7198 18.8287 23.3755 19.2388 22.9541 19.5849C22.5365 19.9273 22.0587 20.1925 21.5207 20.3807C20.9827 20.5688 20.3958 20.6628 19.76 20.6628C18.7592 20.6628 17.8675 20.4258 17.085 19.9517C16.3024 19.4739 15.6854 18.7911 15.2339 17.9032C14.7862 17.0153 14.5624 15.9562 14.5624 14.7259C14.5624 13.4919 14.7881 12.4328 15.2396 11.5487C15.6911 10.6608 16.3081 9.97982 17.0906 9.50578C17.8732 9.02797 18.763 8.78906 19.76 8.78906C20.3732 8.78906 20.9451 8.87748 21.4756 9.0543C22.0098 9.22737 22.4895 9.4832 22.9146 9.82181C23.3398 10.1567 23.6916 10.5667 23.97 11.0521C24.2484 11.5336 24.4365 12.0848 24.5343 12.7056Z" fill="#070010"/>
</g>
<defs>
<clipPath id="clip0_4059_20186">
<rect width="40" height="40" fill="white"/>
</clipPath>
</defs>
</svg>

<svg xmlns="http://www.w3.org/2000/svg" width="40" height="40" fill="none" viewBox="0 0 40 40"><g clip-path="url(#a)"><path fill="#4EEAFF" d="M20 40c11.046 0 20-8.954 20-20S31.046 0 20 0 0 8.954 0 20s8.954 20 20 20"/><path fill="#070010" d="M15.861 29.803c-4.459 0-8.104-3.644-8.104-8.104 0-3.165 1.823-5.947 4.508-7.241v-2.925C8.093 13.02 5.072 17 5.072 21.7c0 5.946 4.843 10.79 10.79 10.79 4.699 0 8.679-3.021 10.165-7.193h-2.925c-1.294 2.685-4.076 4.507-7.24 4.507M30.966 18.97v-3.282c1.12.28 2.001.64 2.001 1.601 0 .88-.76 1.521-2.001 1.68m-1.52 3.042h1.6V20.77c2.362-.28 3.883-1.642 3.883-3.483 0-2.561-2.041-3.122-3.962-3.482v-3.403c.92.08 1.92.36 2.842.8v-2a9.4 9.4 0 0 0-2.762-.56V7.44h-1.602v1.201c-2.441.28-3.842 1.642-3.842 3.363 0 2.601 2.001 3.202 3.922 3.562v3.403c-1.16-.16-2.401-.64-3.842-1.401v2.122c1.24.6 2.521 1 3.762 1.08zm.08-8.366c-1.121-.24-1.962-.64-1.962-1.641 0-.921.72-1.482 1.961-1.602z"/><path fill="#070010" d="M24.534 12.706h-1.76a2.7 2.7 0 0 0-1.056-1.722q-.4-.299-.897-.451a3.5 3.5 0 0 0-1.044-.152q-.998 0-1.79.502-.784.503-1.24 1.473-.453.97-.452 2.37 0 1.41.451 2.382.457.97 1.248 1.467.79.495 1.777.496.547 0 1.039-.146.496-.152.897-.446.4-.294.677-.717.282-.429.39-.982l1.76.006a4.7 4.7 0 0 1-.547 1.569 4.3 4.3 0 0 1-1.033 1.23 4.7 4.7 0 0 1-1.433.796 5.3 5.3 0 0 1-1.761.282q-1.501 0-2.675-.711-1.175-.716-1.851-2.049-.672-1.332-.672-3.177 0-1.851.678-3.177.677-1.333 1.85-2.043 1.175-.717 2.67-.717.92 0 1.716.265a4.5 4.5 0 0 1 1.439.768q.638.503 1.055 1.23.417.723.564 1.654"/></g><defs><clipPath id="a"><path fill="#fff" d="M0 0h40v40H0z"/></clipPath></defs></svg>
